X: 4
C:Benedetto Marcello (1686-1739)
F:https://www.facebook.com/groups/693933870633396/permalink/2511043178922447/
T: Ma'oz Tzur (Marcello)
R:choral 
Z:Gideon Klionsky
M:C
%%MIDI gchordon
%%MIDgI chordprog 57 % play the given chords
%%MIDI bassprog 59 % play the bass of the given chords
%%staves 1 
Q:1/4=90
V:1
K:A min clef=treble
"Am"A2"Em"G2"Am"A2>B2 |"Dm" cBAB "Em"GFEF | GF"C"ED"Am"C2DD | "Em"EFGF "E" E4 |
%w:Ma-oz tzur ye-shu_a_ti__ le-cha_ na_eh le-sha-be___'ach
%
"Am"A2"Em"G2"Am"A2>B2 |"Dm" cBAB "Em"GFEF | GF"C"ED"Am"C2DD | "Em"EFGF"E"E3 c |
%w:Ti-kon beit te-fi_la_ti__ ve-sham_ to_dah ne-za-be___'ach Le-
%
"Am"c3c"G"d3d | "C"e2dc"G"B3c | "Dm"d2A2"Am"A2GF | "C"EG"Dm"FE"G"D4 
%w:eit ta-chin mat-be__ach_ mi-tzar ham'-na_be___ach
%
|: "Gm"DEFG"Dm"A3B | [M:3/4] "Am"c2BA"G"G2 | [M:4/4] "C"c2BA "Em" "(G"G2"Em)"FE |1 "Dm"FAGF "E"E4 :|2 "Dm"FAGF !fermata!"E"E4 |]
%w:Az__ eg-mor be-shir miz_mor Ha-nu_kat ha-miz-be___'ach|be___'ach
%%%%%%%%%%%%%%%%%%%%%%%%%%%%%%%%%%%%%%%
W:
W:
W:מָעוֹז צוּר יְשׁוּעָתִי לְךָ נָאֶה לְשַׁבֵּחַ
W:תִּכּוֹן בֵּית תְּפִלָּתִי וְשָׁם תּוֹדָה נְזַבֵּחַ
W:לְעֵת תָּכִין מַטְבֵּחַ מִצָּר הַמְנַבֵּחַ
W:אָז אֶגְמֹר בְּשִׁיר מִזְמוֹר חֲנֻכַּת הַמִּזְבֵּחַ
W:
W:רָעוֹת שָׂבְעָה נַפְשִׁי בְּיָגוֹן כֹּחִי כָּלָה
W:חַיַּי מֵרְרוּ בְקֹשִׁי בְּשִׁעְבּוּד מַלְכוּת עֶגְלָה
W:וּבְיָדוֹ הַגְּדוֹלָה הוֹצִיא אֶת הַסְּגֻלָּה
W:חֵיל פַּרְעֹה וְכָל זַרְעוֹ יָרְדוּ כְּאֶבֶן בִּמְצוּלָה
W:
W:דְּבִיר קָדְשׁוֹ הֱבִיאַנִי וְגַם שָׁם לֹא שָׁקַטְתִּי
W:וּבָא נוֹגֵשׂ וְהִגְלַנִי כִּי זָרִים עָבַדְתִּי
W:וְיֵין רַעַל מָסַכְתִּי כִּמְעַט שֶׁעָבַרְתִּי
W:קֵץ בָּבֶל זְרֻבָּבֶל לְקֵץ שִׁבְעִים נוֹשַׁעְתִּי
W:
W:כְּרוֹת קוֹמַת בְּרוֹשׁ בִּקֵּשׁ אֲגָגִי בֶּן הַמְּדָתָא
W:וְנִהְיָתָה לוֹ לְפַח וּלְמוֹקֵשׁ וְגַאֲוָתוֹ נִשְׁבָּתָה
W:רֹאשׁ יְמִינִי נִשֵּׂאתָ וְאוֹיֵב שְׁמוֹ מָחִיתָ
W:רֹב בָּנָיו וְקִנְיָנָיו עַל הָעֵץ תָּלִיתָ
W:
W:יְוָנִים נִקְבְּצוּ עָלַי אֲזַי בִּימֵי חַשְׁמַנִּים
W:וּפָרְצוּ חוֹמוֹת מִגְדָּלַי וְטִמְּאוּ כָּל הַשְּׁמָנִים
W:וּמִנּוֹתַר קַנְקַנִּים נַעֲשָׂה נֵס לַשּׁוֹשַׁנִּים
W:בְּנֵי בִינָה יְמֵי שְׁמוֹנָה קָבְעוּ שִׁיר וּרְנָנִים
W:
W:חֲשׂוֹף זְרוֹעַ קָדְשֶׁךָ וְקָרֵב קֵץ הַיְשׁוּעָה
W:נְקֹם נִקְמַת עֲבָדֶיךָ מֵאֻמָּה הָרְשָׁעָה
W:כִּי אָרְכָה הַשָּׁעָה וְאֵין קֵץ לִימֵי הָרָעָה
W:דְּחֵה אַדְמוֹן בְּצֵל צַלְמוֹן הָקֵם לָנוּ רוֹעִים שִׁבְעָה



